packages/icons/svg/Outline/clock.svg

<svg fill="none" height="24" viewBox="0 0 24 24" width="24" xmlns="http://www.w3.org/2000/svg"><path clip-rule="evenodd" d="m16 11.0001h-3v-3.00004c0-.553-.448-1-1-1s-1 .447-1 1v4.00004c0 .553.448 1 1 1h4c.553 0 1-.447 1-1s-.447-1-1-1zm-4 9c-4.41095 0-7.99995-3.589-7.99995-8 0-4.41104 3.589-8.00003 7.99995-8.00003 4.411 0 8 3.58899 8 8.00003 0 4.411-3.589 8-8 8zm0-18.0001c-5.51397 0-9.99997 4.486-9.99997 10s4.486 10 9.99997 10c5.514 0 10-4.486 10-10s-4.486-10-10-10z" fill="#6b7280" fill-rule="evenodd"/></svg>

<svg width="24" height="24" viewBox="0 0 24 24" fill="none" xmlns="http://www.w3.org/2000/svg">
<g id="Icon/Outline/clock">
<path id="Mask" fill-rule="evenodd" clip-rule="evenodd" d="M16 11H13V8C13 7.447 12.552 7 12 7C11.448 7 11 7.447 11 8V12C11 12.553 11.448 13 12 13H16C16.553 13 17 12.553 17 12C17 11.447 16.553 11 16 11ZM12 20C7.589 20 4 16.411 4 12C4 7.589 7.589 4 12 4C16.411 4 20 7.589 20 12C20 16.411 16.411 20 12 20ZM12 2C6.486 2 2 6.486 2 12C2 17.514 6.486 22 12 22C17.514 22 22 17.514 22 12C22 6.486 17.514 2 12 2Z" fill="#000000"/>
</g>
</svg>
